Badges/Community/Package/link-pesde.svg

<svg width="92" height="32" viewBox="0 0 92 32" fill="none" xmlns="http://www.w3.org/2000/svg">
<g filter="url(#filter0_i_24_8)">
<rect width="92" height="32" rx="4" fill="#120E0B"/>
<path fill-rule="evenodd" clip-rule="evenodd" d="M18.9125 5L28.4388 10.5V21.5L18.9125 27L9.38628 21.5V10.5L18.9125 5ZM11.1463 11.5161L18.9125 7.03227L26.6788 11.5161V20.4839L18.9125 24.9677L15.3953 22.937V19.8247C15.5937 20.0716 15.8405 20.2727 16.1358 20.4281C16.5734 20.6526 17.0279 20.7648 17.4991 20.7648C18.2172 20.7648 18.8119 20.5964 19.2832 20.2598C19.7657 19.912 20.1248 19.4688 20.3604 18.9302C20.5601 18.4944 20.679 18.0403 20.7172 17.5678C21.1719 17.7041 21.6875 17.7722 22.2638 17.7722C22.8922 17.7722 23.4813 17.6824 24.0311 17.5029C24.5809 17.3121 25.0297 17.0597 25.3776 16.7455L24.6707 15.5168C24.4014 15.7637 24.0591 15.9657 23.644 16.1227C23.2288 16.2686 22.7856 16.3415 22.3143 16.3415C21.5064 16.3415 20.9061 16.1508 20.5134 15.7693C20.4783 15.7352 20.4447 15.7 20.4128 15.6638C20.2342 15.4619 20.1046 15.2277 20.024 14.9614L20.0217 14.9539L20.0272 14.9614H25.4281V14.2377C25.4281 13.5869 25.2822 12.9978 24.9905 12.4704C24.7099 11.943 24.3004 11.5223 23.7618 11.2081C23.2344 10.8827 22.6004 10.72 21.8599 10.72C21.1305 10.72 20.4966 10.8827 19.958 11.2081C19.4194 11.5223 19.0042 11.943 18.7125 12.4704C18.4883 12.8756 18.3503 13.3173 18.2984 13.7953C18.0515 13.7402 17.7851 13.7126 17.4991 13.7126C17.0279 13.7126 16.5734 13.8248 16.1358 14.0492C15.7696 14.2323 15.4778 14.4941 15.2606 14.8345V13.8809H12.5508V15.1769H13.6785V21.9459L11.1463 20.4839V11.5161ZM20.1431 12.9417C20.0236 13.1623 19.9531 13.3868 19.9315 13.6149H23.7955C23.7955 13.3681 23.7169 13.1268 23.5598 12.8912C23.4139 12.6443 23.1952 12.4368 22.9034 12.2684C22.6229 12.1001 22.2751 12.016 21.8599 12.016C21.4447 12.016 21.0913 12.1058 20.7996 12.2853C20.519 12.4536 20.3002 12.6724 20.1431 12.9417ZM18.9219 16.3452C18.8477 16.1461 18.7444 15.9716 18.6121 15.8218C18.5795 15.7848 18.5451 15.7494 18.509 15.7155C18.1387 15.3564 17.6899 15.1769 17.1625 15.1769C16.8259 15.1769 16.4949 15.2442 16.1695 15.3789C15.8891 15.489 15.631 15.6796 15.3953 15.9507V18.5234C15.631 18.7866 15.8891 18.9783 16.1695 19.0985C16.4949 19.2331 16.8259 19.3005 17.1625 19.3005C17.6899 19.3005 18.1387 19.1209 18.509 18.7619C18.8793 18.4028 19.0644 17.8923 19.0644 17.2303C19.0644 16.8949 19.0169 16.5999 18.9219 16.3452Z" fill="#F19D1E"/>
<path d="M36.31 20H34.814V12.3H37.685C39.379 12.3 40.556 13.026 40.556 14.753C40.556 16.48 39.214 17.217 37.685 17.217H36.31V20ZM36.31 13.752V15.765H37.883C38.587 15.765 39.038 15.435 39.038 14.753C39.038 14.071 38.587 13.752 37.883 13.752H36.31ZM43.9719 20.11C42.2009 20.11 41.0459 18.911 41.0459 17.129C41.0459 15.347 42.2009 14.126 43.8509 14.126C45.6329 14.126 46.5239 15.347 46.5239 17.052V17.547H42.4649C42.5859 18.449 43.1579 18.834 43.9719 18.834C44.5659 18.834 45.0169 18.647 45.4679 18.273L46.3149 19.285C45.6989 19.857 44.8189 20.11 43.9719 20.11ZM43.8509 15.314C43.1469 15.314 42.6849 15.677 42.5089 16.403H45.1269C45.0389 15.71 44.5769 15.314 43.8509 15.314ZM49.5647 20.11C48.5747 20.11 47.8267 19.758 47.1777 19.23L47.9257 18.218C48.3987 18.625 48.9377 18.9 49.5647 18.9C50.1587 18.9 50.4777 18.702 50.4777 18.339C50.4777 17.976 50.2137 17.866 49.7737 17.778L49.0367 17.624C48.0357 17.415 47.4417 16.92 47.4417 15.974C47.4417 14.83 48.2667 14.126 49.5977 14.126C50.4337 14.126 51.1927 14.379 51.7867 14.918L51.0057 15.886C50.5767 15.534 50.1147 15.336 49.5757 15.336C49.1687 15.336 48.8057 15.49 48.8057 15.82C48.8057 16.084 48.9817 16.26 49.5427 16.381L50.3567 16.557C51.2257 16.744 51.8747 17.195 51.8747 18.152C51.8747 19.384 50.9617 20.11 49.5647 20.11ZM55.035 20.11C53.693 20.11 52.626 19.087 52.626 17.118C52.626 15.182 53.792 14.126 55.453 14.126C55.97 14.126 56.498 14.258 56.839 14.445V12.19H58.247V20H56.839V19.186L56.663 19.12C56.344 19.813 55.761 20.11 55.035 20.11ZM55.442 18.812C55.992 18.812 56.564 18.57 56.839 18.042V15.71C56.487 15.501 56.036 15.424 55.596 15.424C54.738 15.424 54.056 15.952 54.056 17.118C54.056 18.174 54.529 18.812 55.442 18.812ZM62.3196 20.11C60.5486 20.11 59.3936 18.911 59.3936 17.129C59.3936 15.347 60.5486 14.126 62.1986 14.126C63.9806 14.126 64.8716 15.347 64.8716 17.052V17.547H60.8126C60.9336 18.449 61.5056 18.834 62.3196 18.834C62.9136 18.834 63.3646 18.647 63.8156 18.273L64.6626 19.285C64.0466 19.857 63.1666 20.11 62.3196 20.11ZM62.1986 15.314C61.4946 15.314 61.0326 15.677 60.8566 16.403H63.4746C63.3866 15.71 62.9246 15.314 62.1986 15.314Z" fill="white"/>
<path d="M75.625 11.1875C75.7812 11.1875 75.9141 11.2422 76.0234 11.3516C76.1328 11.4609 76.1875 11.5938 76.1875 11.75C76.1875 11.9062 76.1328 12.0391 76.0234 12.1484C75.9141 12.2578 75.7812 12.3125 75.625 12.3125H72.0625V20.1875H79.9375V16.625C79.9375 16.4688 79.9922 16.3359 80.1016 16.2266C80.2109 16.1172 80.3438 16.0625 80.5 16.0625C80.6562 16.0625 80.7891 16.1172 80.8984 16.2266C81.0078 16.3359 81.0625 16.4688 81.0625 16.625V20.375C81.0625 20.543 81.0195 20.6992 80.9336 20.8438C80.8516 20.9883 80.7383 21.1016 80.5938 21.1836C80.4492 21.2695 80.293 21.3125 80.125 21.3125H71.875C71.707 21.3125 71.5508 21.2695 71.4062 21.1836C71.2617 21.1016 71.1465 20.9883 71.0605 20.8438C70.9785 20.6992 70.9375 20.543 70.9375 20.375V12.125C70.9375 11.957 70.9785 11.8008 71.0605 11.6562C71.1465 11.5117 71.2617 11.3984 71.4062 11.3164C71.5508 11.2305 71.707 11.1875 71.875 11.1875H75.625ZM80.5 11.1875C80.6562 11.1875 80.7891 11.2422 80.8984 11.3516C81.0078 11.4609 81.0625 11.5938 81.0625 11.75V14C81.0625 14.1562 81.0078 14.2891 80.8984 14.3984C80.7891 14.5078 80.6562 14.5625 80.5 14.5625C80.3438 14.5625 80.2109 14.5078 80.1016 14.3984C79.9922 14.2891 79.9375 14.1562 79.9375 14V13.1094L76.3984 16.6484C76.2891 16.7578 76.1562 16.8125 76 16.8125C75.8438 16.8125 75.7109 16.7578 75.6016 16.6484C75.4922 16.5391 75.4375 16.4062 75.4375 16.25C75.4375 16.0938 75.4922 15.9609 75.6016 15.8516L79.1406 12.3125H78.25C78.0938 12.3125 77.9609 12.2578 77.8516 12.1484C77.7422 12.0391 77.6875 11.9062 77.6875 11.75C77.6875 11.5938 77.7422 11.4609 77.8516 11.3516C77.9609 11.2422 78.0938 11.1875 78.25 11.1875H80.5Z" fill="white"/>
</g>
<defs>
<filter id="filter0_i_24_8" x="0" y="-2" width="92" height="34" filterUnits="userSpaceOnUse" color-interpolation-filters="sRGB">
<feFlood flood-opacity="0" result="BackgroundImageFix"/>
<feBlend mode="normal" in="SourceGraphic" in2="BackgroundImageFix" result="shape"/>
<feColorMatrix in="SourceAlpha" type="matrix" values="0 0 0 0 0 0 0 0 0 0 0 0 0 0 0 0 0 0 127 0" result="hardAlpha"/>
<feOffset dy="-2"/>
<feGaussianBlur stdDeviation="1.65"/>
<feComposite in2="hardAlpha" operator="arithmetic" k2="-1" k3="1"/>
<feColorMatrix type="matrix" values="0 0 0 0 1 0 0 0 0 1 0 0 0 0 1 0 0 0 0.11 0"/>
<feBlend mode="normal" in2="shape" result="effect1_innerShadow_24_8"/>
</filter>
</defs>
</svg>

<svg xmlns="http://www.w3.org/2000/svg" width="92" height="32" fill="none">
  <g filter="url(#a)">
    <rect width="92" height="32" fill="#120e0b" rx="4"/>
    <path fill="#f19d1e" fill-rule="evenodd" d="m18.913 5 9.526 5.5v11L18.913 27l-9.527-5.5v-11zm-7.767 6.516 7.767-4.484 7.766 4.484v8.968l-7.766 4.484-3.518-2.031v-3.112q.299.37.74.603a2.95 2.95 0 0 0 1.364.337q1.077 0 1.784-.505a3.2 3.2 0 0 0 1.077-1.33q.3-.654.357-1.362.682.204 1.547.204a5.7 5.7 0 0 0 1.767-.27q.825-.285 1.347-.756l-.707-1.23q-.405.372-1.027.607a4 4 0 0 1-1.33.218q-1.212 0-1.8-.572a1.9 1.9 0 0 1-.49-.808l-.002-.007.005.007h5.401v-.723q0-.976-.437-1.768a3.16 3.16 0 0 0-1.23-1.262q-.79-.488-1.901-.488-1.094 0-1.902.488a3.3 3.3 0 0 0-1.245 1.262 3.5 3.5 0 0 0-.415 1.325 3.7 3.7 0 0 0-.799-.082q-.707 0-1.363.336a2.17 2.17 0 0 0-.875.786v-.954h-2.71v1.296h1.127v6.769l-2.532-1.462zm8.997 1.426q-.18.33-.212.673h3.864a1.3 1.3 0 0 0-.235-.724 1.76 1.76 0 0 0-.657-.623q-.42-.252-1.043-.252t-1.06.27q-.421.251-.657.656m-1.221 3.403a1.66 1.66 0 0 0-.413-.63q-.556-.538-1.346-.538-.505 0-.994.202-.42.165-.774.572v2.572q.354.395.774.576.489.201.994.201.79 0 1.346-.538.555-.54.555-1.532 0-.502-.142-.885" clip-rule="evenodd"/>
    <path fill="#fff" d="M36.31 20h-1.496v-7.7h2.871c1.694 0 2.871.726 2.871 2.453s-1.342 2.464-2.871 2.464H36.31zm0-6.248v2.013h1.573c.704 0 1.155-.33 1.155-1.012s-.451-1.001-1.155-1.001zm7.662 6.358c-1.771 0-2.926-1.199-2.926-2.981s1.155-3.003 2.805-3.003c1.782 0 2.673 1.221 2.673 2.926v.495h-4.06c.122.902.694 1.287 1.508 1.287.594 0 1.045-.187 1.496-.561l.847 1.012c-.616.572-1.496.825-2.343.825m-.121-4.796c-.704 0-1.166.363-1.342 1.089h2.618c-.088-.693-.55-1.089-1.276-1.089m5.714 4.796c-.99 0-1.738-.352-2.387-.88l.748-1.012c.473.407 1.012.682 1.639.682.594 0 .913-.198.913-.561s-.264-.473-.704-.561l-.737-.154c-1.001-.209-1.595-.704-1.595-1.65 0-1.144.825-1.848 2.156-1.848.836 0 1.595.253 2.189.792l-.781.968c-.43-.352-.891-.55-1.43-.55-.407 0-.77.154-.77.484 0 .264.176.44.737.561l.814.176c.869.187 1.518.638 1.518 1.595 0 1.232-.913 1.958-2.31 1.958m5.47 0c-1.342 0-2.409-1.023-2.409-2.992 0-1.936 1.166-2.992 2.827-2.992.517 0 1.045.132 1.386.319V12.19h1.408V20h-1.408v-.814l-.176-.066c-.319.693-.902.99-1.628.99m.407-1.298c.55 0 1.122-.242 1.397-.77V15.71c-.352-.209-.803-.286-1.243-.286-.858 0-1.54.528-1.54 1.694 0 1.056.473 1.694 1.386 1.694m6.878 1.298c-1.771 0-2.926-1.199-2.926-2.981s1.155-3.003 2.805-3.003c1.782 0 2.673 1.221 2.673 2.926v.495h-4.06c.122.902.694 1.287 1.508 1.287.594 0 1.045-.187 1.496-.561l.847 1.012c-.616.572-1.496.825-2.343.825m-.121-4.796c-.704 0-1.166.363-1.342 1.089h2.618c-.088-.693-.55-1.089-1.276-1.089m13.426-4.126q.235 0 .398.164.165.164.165.398t-.165.398a.54.54 0 0 1-.398.165h-3.562v7.874h7.874v-3.562q0-.235.165-.398a.54.54 0 0 1 .398-.165q.235 0 .398.165.165.164.165.398v3.75a.9.9 0 0 1-.13.469.9.9 0 0 1-.34.34.9.9 0 0 1-.468.128h-8.25a.9.9 0 0 1-.469-.128.93.93 0 0 1-.346-.34.93.93 0 0 1-.123-.469v-8.25q0-.252.124-.469a.93.93 0 0 1 .345-.34.9.9 0 0 1 .469-.129zm4.875 0q.235 0 .398.164.165.164.165.398V14q0 .235-.165.398a.54.54 0 0 1-.398.165.54.54 0 0 1-.398-.165.54.54 0 0 1-.165-.398v-.89l-3.539 3.538a.54.54 0 0 1-.398.165.54.54 0 0 1-.398-.165.54.54 0 0 1-.165-.398q0-.235.165-.398l3.539-3.54h-.891a.54.54 0 0 1-.398-.164.54.54 0 0 1-.165-.398q0-.235.165-.398a.54.54 0 0 1 .398-.165z"/>
  </g>
  <defs>
    <filter id="a" width="92" height="34" x="0" y="-2" color-interpolation-filters="sRGB" filterUnits="userSpaceOnUse">
      <feFlood flood-opacity="0" result="BackgroundImageFix"/>
      <feBlend in="SourceGraphic" in2="BackgroundImageFix" result="shape"/>
      <feColorMatrix in="SourceAlpha" result="hardAlpha" values="0 0 0 0 0 0 0 0 0 0 0 0 0 0 0 0 0 0 127 0"/>
      <feOffset dy="-2"/>
      <feGaussianBlur stdDeviation="1.65"/>
      <feComposite in2="hardAlpha" k2="-1" k3="1" operator="arithmetic"/>
      <feColorMatrix values="0 0 0 0 1 0 0 0 0 1 0 0 0 0 1 0 0 0 0.11 0"/>
      <feBlend in2="shape" result="effect1_innerShadow_24_8"/>
    </filter>
  </defs>
</svg>
